!!!!SEGMENT: pl-stab--10e--002_zebrowski-marcin-jozef--vespere-ex-d-detorente.krn
!!!cenid: 18xx:3418
!!!COM: Żebrowski, Marcin Józef
!!!COM-rismID: pe30020322
!!!CDT: 1702-1770/06/29
!!!CNT: Polish
!!!OPR: Vespere ex D
!!!OTL: Detorente
!!!OMV: 002
!!!PDT: 1801
!!!AGN:
!!!SMS-siglum: PL-STAb
!!!SMS-shelfmark: 10e
!!!SMS-shelfwork: M
!!!SMS-variant:
!!!SMS-altvar:
!!!NIFC-rismSourceID: 301050566
!!!NIFC-islandoraID: pl-stab:2368
!!!URL-pdf-islandora: https://repozytorium.nifc.pl/islandora/object/pl-stab%3A2368/datastream/PDF/view
!!!URL-scan: https://polish.musicsources.pl/pl/lokalizacje/galeria/rekopisy/4401 @EN{Scan on Polish Music Sources Website} @PL{Skany w portalu Dziedzictwo Muzyki Polskiej w otwartym dostępie}
!!!ONB-nifc: UWAGA: części Vespere: 1. Dixit Dominus, 2. Detorente, 3. Gloria Patri (razem z Sicut erat), 4. Magnificat, 5. Gloria Patri (z Sicut erat i Amen)
!!!AIN: 1 bass 2 cor 1 organ 1 soprn 2 violn
!!!key: A
**kern	**fba	**dynam	**kern	**kern	**kern	**kern	**text	**kern	**kern
*part7	*part7	*part7	*part6	*part5	*part4	*part3	*part3	*part2	*part1
*staff7	*	*	*staff6	*staff5	*staff4	*staff3	*staff3	*staff2	*staff1
*IGcont	*	*	*	*	*IGcoro	*IGcoro	*	*	*
*ICklav	*	*	*ICstr	*ICstr	*ICvox	*ICvox	*	*ICbrass	*ICbrass
*Iorgan	*	*	*Ivioln	*Ivioln	*Ibass	*Isoprn	*	*Icor	*Icor
*I"Organo	*	*	*I"Violino Secundo	*I"Violino Primo	*I"Baſso	*I"Canto	*	*I"Cornu Secundo	*I"Cornu Primo in D.
*I'org	*	*	*I'vl 2	*I'vl 1	*I'B	*I'S	*	*I'cor 2 in D	*I'cor 1 in D
*clefF4	*	*	*clefG2	*clefG2	*clefF4	*clefC1	*	*clefG2	*clefG2
*	*	*	*	*	*	*	*	*ITrd6c10	*ITrd6c10
*k[f#c#g#]	*	*	*k[f#c#g#]	*k[f#c#g#]	*k[f#c#g#]	*k[f#c#g#]	*	*k[f#c#g#]	*k[f#c#g#]
*A:	*	*	*A:	*A:	*A:	*A:	*	*A:	*A:
*M3/4	*	*	*M3/4	*M3/4	*M3/4	*M3/4	*	*M3/4	*M3/4
*2\right	*	*below	*2\right	*2\right	*2\right	*2\right	*	*2\right	*2\right
=1	=1	=1	=1	=1	=1	=1	=1	=1	=1
!LO:TX:a:t=Solo	!	!	!	!	!	!LO:TX:a:t=28	!	!	!LO:TX:a:t=Detorente et gloria Tacet
!LO:TX:a:B:t=Andante	!	!	!LO:TX:a:t=Andante	!LO:TX:a:B:t=Andante	!LO:TX:a:t=Detorente Tacet	!LO:TX:a:B:t=Andante	!	!LO:TX:a:t=Detorente et Gloria Tacet	!LO:TX:a:B:t=Andante
4AA/	x 3 5	.	8.c#/L	8.a\L	2.ryy	0.r	.	2.ryy	2.ryy
.	.	.	32d/LL	(32b\LL	.	.	.	.	.
.	.	.	32e/JJJ	32cc#\JJJ)	.	.	.	.	.
4AA/	x 4 6	.	4f#/	4dd\	.	.	.	.	.
4AA/	x 4 6	.	4f#/	4dd\	.	.	.	.	.
=2	=2	=2	=2	=2	=2	=2	=2	=2	=2
.	.	.	.	16qqee/	.	.	.	.	.
4AA/	x 4 6	.	(8f#/L	8dd\L	2.ryy	.	.	2.ryy	2.ryy
.	.	.	8e/J)	8cc#\J	.	.	.	.	.
(8A\L	x 3 5	.	2e/	2cc#\	.	.	.	.	.
8G#\)	.	.	.	.	.	.	.	.	.
(8A\	.	.	.	.	.	.	.	.	.
8G#\J)	.	.	.	.	.	.	.	.	.
=3	=3	=3	=3	=3	=3	=3	=3	=3	=3
4AA/	.	.	(8.a\L	8.cc#\L	2.ryy	.	.	2.ryy	2.ryy
.	.	.	32b\LL	(32dd\LL	.	.	.	.	.
.	.	.	32cc#\JJJ)	32ee\JJJ)	.	.	.	.	.
4AA/	x 6 4	.	4dd|\	4ff#\	.	.	.	.	.
4AA/	x 6 4	.	4dd|\	4ff#\	.	.	.	.	.
=4	=4	=4	=4	=4	=4	=4	=4	=4	=4
4AA/	x 6 4	.	8dd\L	8ff#\L	2.ryy	.	.	2.ryy	2.ryy
.	.	.	8cc#\J	8ee\J	.	.	.	.	.
!LO:TX:t=P:problem=mixed beam	!	!	!	!	!	!	!	!	!
(8A\L	x 5 3	.	2cc#\	2ee\	.	.	.	.	.
8G#\	.	.	.	.	.	.	.	.	.
8A\)	.	.	.	.	.	.	.	.	.
8AA/J	.	.	.	.	.	.	.	.	.
=5	=5	=5	=5	=5	=5	=5	=5	=5	=5
4r	.	.	(16b\LL	16dd\LL	2.ryy	0.r	.	2.ryy	2.ryy
.	.	.	16a\)	16cc#\	.	.	.	.	.
.	.	.	(16dd\	16ff#\	.	.	.	.	.
.	.	.	16cc#\JJ)	16ee\JJ	.	.	.	.	.
4EE/	x 6 4	.	4.cc#\	4.ee\	.	.	.	.	.
4E\	x 7 3	.	.	.	.	.	.	.	.
.	.	.	8b\	8dd\	.	.	.	.	.
=6	=6	=6	=6	=6	=6	=6	=6	=6	=6
!	!	!	!LO:LB:g=original	!LO:LB:g=original	!	!	!	!	!
4r	.	.	(16a/LL	(16cc#\LL	2.ryy	.	.	2.ryy	2.ryy
.	.	.	16g#/)	16b\)	.	.	.	.	.
.	.	.	(16cc#/	(16ee\	.	.	.	.	.
.	.	.	16b/JJ)	16dd\JJ)	.	.	.	.	.
4AA/	x 4 9	.	4.b/	4.dd\	.	.	.	.	.
4A\	x 3 8	.	.	.	.	.	.	.	.
.	.	.	8a/	8cc#\	.	.	.	.	.
=7	=7	=7	=7	=7	=7	=7	=7	=7	=7
*	*	*	*tremolo	*	*	*	*	*	*
2D\	x x 6	.	8f#/L	16b\LL	2.ryy	.	.	2.ryy	2.ryy
.	.	.	.	16cc#\	.	.	.	.	.
.	.	.	8f#/	16b\	.	.	.	.	.
.	.	.	.	16cc#\JJ	.	.	.	.	.
.	.	.	8f#/	16dd\LL	.	.	.	.	.
.	.	.	.	16ee\	.	.	.	.	.
.	.	.	8f#/	16dd\	.	.	.	.	.
.	.	.	.	16ee\JJ	.	.	.	.	.
4D#X\	x 6 5	.	8f#/	8.ff#\L	.	.	.	.	.
.	.	.	8f#/J	.	.	.	.	.	.
.	.	.	.	16a\Jk	.	.	.	.	.
*	*	*	*Xtremolo	*	*	*	*	*	*
=8	=8	=8	=8	=8	=8	=8	=8	=8	=8
4EE/	x x 4	.	2B/	4a/	2.ryy	.	.	2.ryy	2.ryy
4E\	x x 3	.	.	4g#/	.	.	.	.	.
4Dn\	x 4 2	.	8.g#/L	4r	.	.	.	.	.
.	.	.	32a/LL	.	.	.	.	.	.
.	.	.	32b/JJJ	.	.	.	.	.	.
=9	=9	=9	=9	=9	=9	=9	=9	=9	=9
4C#/	x x 6	.	4e/	(8a\L	2.ryy	0.r	.	2.ryy	2.ryy
.	.	.	.	8aa\J)	.	.	.	.	.
4c#\	x x 6	.	4ff#\	(8aa\L	.	.	.	.	.
.	.	.	.	8gg#\J)	.	.	.	.	.
4B\	x 6 3#r	.	4dd#X\	(8gg#\L	.	.	.	.	.
.	.	.	.	8ff#\J)	.	.	.	.	.
=10	=10	=10	=10	=10	=10	=10	=10	=10	=10
!LO:LB:g=original	!	!	!	!	!	!	!	!	!
4A\	x x 6	.	4cc#\	(8ff#\L	2.ryy	.	.	2.ryy	2.ryy
.	.	.	.	8ee\J)	.	.	.	.	.
4G#\	x x 6	.	4b\	(8ee\L	.	.	.	.	.
.	.	.	.	8dd#X\J)	.	.	.	.	.
4F#\	x x 6\	.	4a\	(8dd#\L	.	.	.	.	.
.	.	.	.	8ee\J)	.	.	.	.	.
=11	=11	=11	=11	=11	=11	=11	=11	=11	=11
!	!	!	!	!LO:TX:t=P:problem=mixed beam	!	!	!	!	!
4E\	x x 3#r	.	4g#/	(8e/L	2.ryy	.	.	2.ryy	2.ryy
.	.	.	.	8ddn\J)	.	.	.	.	.
4F#\	x x 6nr	.	4a/	(8dd\L	.	.	.	.	.
.	.	.	.	8cc#\J)	.	.	.	.	.
4E\	x x 6	.	4g#/	(8cc#\L	.	.	.	.	.
.	.	.	.	8b\J)	.	.	.	.	.
=12	=12	=12	=12	=12	=12	=12	=12	=12	=12
!	!	!	!	!LO:LB:g=original	!	!	!	!	!
4D/	x x 6	.	4f#/	(8b/L	2.ryy	.	.	2.ryy	2.ryy
.	.	.	.	8a/J)	.	.	.	.	.
4C#/	x x 6	.	4e/	(8a/L	.	.	.	.	.
.	.	.	.	8g#/J)	.	.	.	.	.
4BB/	x x 6	.	4d/	(8g#/L	.	.	.	.	.
.	.	.	.	8a/J)	.	.	.	.	.
=13	=13	=13	=13	=13	=13	=13	=13	=13	=13
8AA/L	.	.	(16c#/LL	8A/	2.ryy	0.r	.	2.ryy	2.ryy
.	.	.	16e/)	.	.	.	.	.	.
8AA/	.	.	(16a/	4cc#\	.	.	.	.	.
.	.	.	16e/JJ)	.	.	.	.	.	.
*	*	*	*rep	*	*	*	*	*	*
8AA/	.	.	(16c#/LL	.	.	.	.	.	.
.	.	.	16e/)	.	.	.	.	.	.
8AA/	.	.	(16a/	4ee'\	.	.	.	.	.
.	.	.	16e/JJ)	.	.	.	.	.	.
*	*	*	*Xrep	*	*	*	*	*	*
*	*	*	*rep	*	*	*	*	*	*
8C#/	x 6 5nr	.	(16c#/LL	.	.	.	.	.	.
.	.	.	16e/)	.	.	.	.	.	.
8C#/J	.	.	(16a/	8ggn\	.	.	.	.	.
.	.	.	16e/JJ)	.	.	.	.	.	.
*	*	*	*Xrep	*	*	*	*	*	*
=14	=14	=14	=14	=14	=14	=14	=14	=14	=14
*	*	*	*^	*	*	*	*	*	*
*tremolo	*	*	*tremolo	*	*	*	*	*	*	*
8D\L	.	.	8a/L	2.f#\	(16ee#X\LL	2.ryy	.	.	2.ryy	2.ryy
.	.	.	.	.	16ff#\J)	.	.	.	.	.
8D\	.	.	8a/	.	8ff#|\J	.	.	.	.	.
8D\	.	.	8a/	.	(16ff#\LL	.	.	.	.	.
.	.	.	.	.	16gg#X\)	.	.	.	.	.
8D\	.	.	8a/	.	(16aa\	.	.	.	.	.
.	.	.	.	.	16gg#\JJ)	.	.	.	.	.
8D\	.	.	8a/	.	(16aa\LL	.	.	.	.	.
.	.	.	.	.	16ff#\)	.	.	.	.	.
8D\J	.	.	8a/J	.	(16ee#\	.	.	.	.	.
.	.	.	.	.	16dd\JJ)	.	.	.	.	.
*	*	*	*Xtremolo	*	*	*	*	*	*	*
*	*	*	*v	*v	*	*	*	*	*	*
=15	=15	=15	=15	=15	=15	=15	=15	=15	=15
8E\L	x 6 4	.	(16a\LL	(16cc#\LL	2.ryy	.	.	2.ryy	2.ryy
!	!	!	!LO:SIC:v:s=16b#\:t=?	!	!	!	!	!	!
.	.	.	16b\	16dd#X\)	.	.	.	.	.
8E\	x 7 3#r	.	16cc#\	(16ee\	.	.	.	.	.
!	!	!	!LO:SIC:v:s=16b#\JJ:t=?	!	!	!	!	!	!
.	.	.	16b\JJ)	16dd#\JJ)	.	.	.	.	.
!	!	!	!LO:LB:g=original	!	!	!	!	!	!
8E\	.	.	(16cc#/LL	(16ee\LL	.	.	.	.	.
.	.	.	16e/	16cc#\)	.	.	.	.	.
8E\	.	.	16d/	(16b\	.	.	.	.	.
.	.	.	16c#/JJ)	16a\JJ)	.	.	.	.	.
8E\	.	.	(16B/LL	(16ddn\LL	.	.	.	.	.
.	.	.	16d/	16b\)	.	.	.	.	.
8E\J	.	.	16c#/	(16a\	.	.	.	.	.
.	.	.	16B/JJ)	16g#\JJ)	.	.	.	.	.
*Xtremolo	*	*	*	*	*	*	*	*	*
=16	=16	=16	=16	=16	=16	=16	=16	=16	=16
4AA/	.	.	4c#/	(8a\L	2.ryy	.	.	2.ryy	2.ryy
.	.	.	.	8aa\J)	.	.	.	.	.
!	!	!LO:DY:t=p.	!	!	!	!	!	!	!
4c#\	x x 6	p	(4ee\	(8aa\L	.	.	.	.	.
.	.	.	.	8gg#\J)	.	.	.	.	.
4B\	x 6 3#r	.	4dd#X\)	(8gg#\L	.	.	.	.	.
!	!	!	!	!LO:TX:b:t=Verte.	!	!	!	!	!
.	.	.	.	8ff#\J)	.	.	.	.	.
=17	=17	=17	=17	=17	=17	=17	=17	=17	=17
!	!	!	!	!LO:PB:g=original	!	!	!	!	!
4A\	x x 6	.	4cc#\	(8ff#\L	2.ryy	0.r	.	2.ryy	2.ryy
.	.	.	.	8ee\J)	.	.	.	.	.
4G#\	x x 6	.	4b\	(8ee\L	.	.	.	.	.
.	.	.	.	8dd#X\J)	.	.	.	.	.
4F#\	x x 6\	.	4a\	(8dd#\L	.	.	.	.	.
.	.	.	.	8ee\J)	.	.	.	.	.
=18	=18	=18	=18	=18	=18	=18	=18	=18	=18
!	!	!	!	!LO:TX:t=P:problem=mixed beam	!	!	!	!	!
4E\	x x 3#r	.	4g#/	(8e/L	2.ryy	.	.	2.ryy	2.ryy
.	.	.	.	8ddn\J)	.	.	.	.	.
4F#\	x x 6nr	.	4a/	(8dd\L	.	.	.	.	.
.	.	.	.	8cc#\J)	.	.	.	.	.
4E\	x x 6	.	4g#/	(8cc#\L	.	.	.	.	.
.	.	.	.	8b\J)	.	.	.	.	.
=19	=19	=19	=19	=19	=19	=19	=19	=19	=19
4D/	x x 6	.	4f#/	(8b/L	2.ryy	.	.	2.ryy	2.ryy
.	.	.	.	8a/J)	.	.	.	.	.
4C#/	x x 6	.	4e/	(8a/L	.	.	.	.	.
.	.	.	.	8g#/J)	.	.	.	.	.
4BB/	x x 6	.	4d/	(8g#/L	.	.	.	.	.
.	.	.	.	8a/J)	.	.	.	.	.
=20	=20	=20	=20	=20	=20	=20	=20	=20	=20
8AA/L	.	.	16c#/LL	8A/	2.ryy	.	.	2.ryy	2.ryy
.	.	.	(16e/	.	.	.	.	.	.
8AA/	.	.	16a/	4cc#\	.	.	.	.	.
.	.	.	16e/JJ)	.	.	.	.	.	.
*	*	*	*rep	*	*	*	*	*	*
8AA/	.	.	16c#/LL	.	.	.	.	.	.
.	.	.	(16e/	.	.	.	.	.	.
8AA/	.	.	16a/	4ee\	.	.	.	.	.
.	.	.	16e/JJ)	.	.	.	.	.	.
*	*	*	*Xrep	*	*	*	*	*	*
*	*	*	*rep	*	*	*	*	*	*
8C#/	x 6 5nr	.	16c#/LL	.	.	.	.	.	.
.	.	.	(16e/	.	.	.	.	.	.
8C#/J	.	.	16a/	8ggn\	.	.	.	.	.
.	.	.	16e/JJ)	.	.	.	.	.	.
*	*	*	*Xrep	*	*	*	*	*	*
=21	=21	=21	=21	=21	=21	=21	=21	=21	=21
*	*	*	*^	*	*	*	*	*	*
*tremolo	*	*	*tremolo	*tremolo	*	*	*	*	*	*
8D\L	.	.	8a/L	8f#\L	(16ee#X\LL	2.ryy	0.r	.	2.ryy	2.ryy
.	.	.	.	.	16ff#\J)	.	.	.	.	.
8D\	.	.	8a/	8f#\	8ff#|\J	.	.	.	.	.
8D\	.	.	8a/	8f#\	16ff#\LL	.	.	.	.	.
.	.	.	.	.	16gg#X\	.	.	.	.	.
8D\	.	.	8a/	8f#\	16aa\	.	.	.	.	.
.	.	.	.	.	16gg#\JJ	.	.	.	.	.
8D\	.	.	8a/	8f#\	16aa\LL	.	.	.	.	.
.	.	.	.	.	16ff#\	.	.	.	.	.
8D\J	.	.	8a/J	8f#\J	16ee#\	.	.	.	.	.
.	.	.	.	.	16dd\JJ	.	.	.	.	.
*	*	*	*Xtremolo	*Xtremolo	*	*	*	*	*	*
*	*	*	*v	*v	*	*	*	*	*	*
=22	=22	=22	=22	=22	=22	=22	=22	=22	=22
!	!	!	!	!LO:LB:g=original	!	!	!	!	!
8E\L	x 6 4	.	16a\LL	(16cc#\LL	2.ryy	.	.	2.ryy	2.ryy
!	!	!	!LO:SIC:v:s=(16b#\:t=?	!	!	!	!	!	!
.	.	.	(16b\	16dd#X\)	.	.	.	.	.
8E\	.	.	16cc#\)	(16ee\	.	.	.	.	.
!	!	!	!LO:SIC:v:s=16b#\JJ:t=?	!	!	!	!	!	!
.	.	.	16b\JJ	16dd#\JJ)	.	.	.	.	.
8E\	.	.	16cc#/LL	(16ee\LL	.	.	.	.	.
.	.	.	(16e/	16cc#\)	.	.	.	.	.
8E\J	.	.	16d/)	(16b\	.	.	.	.	.
*Xtremolo	*	*	*	*	*	*	*	*	*
.	.	.	16c#/JJ	16a\JJ)	.	.	.	.	.
!	!	!	!LO:LB:g=original	!	!	!	!	!	!
8EE/L	x 7 3#r	.	(16B/LL	(16ddn\LL	.	.	.	.	.
.	.	.	16d/	16b\)	.	.	.	.	.
8EE/J	.	.	16c#/	(16a\	.	.	.	.	.
.	.	.	16B/JJ)	16g#\JJ)	.	.	.	.	.
=23	=23	=23	=23	=23	=23	=23	=23	=23	=23
!LO:LB:g=original	!	!	!	!	!	!	!	!	!
4AA|/	.	.	8c#/	8a/	2.ryy	.	.	2.ryy	2.ryy
.	.	.	4c#/	(4e/	.	.	.	.	.
4AA|/	x 6 4	.	.	.	.	.	.	.	.
.	.	.	4d/	4f#/	.	.	.	.	.
4AA|/	x 7nr 3	.	.	.	.	.	.	.	.
!	!	!	!	!LO:SIC:v:s=8gnb#\	!	!	!	!	!
.	.	.	8e/	8g#X/)	.	.	.	.	.
=24	=24	=24	=24	=24	=24	=24	=24	=24	=24
4AA|/	x 6 4	.	(8d/	16e#X/LL	2.ryy	.	.	2.ryy	2.ryy
.	.	.	.	16f#/JJ	.	.	.	.	.
.	.	.	4d/	4f#/	.	.	.	.	.
4AA|/	.	.	.	.	.	.	.	.	.
.	.	.	8f#/)	8dd\	.	.	.	.	.
4AA|/	7nr 4 2	.	(16e/LL	(16cc#\LL	.	.	.	.	.
.	.	.	16d/)	16b\)	.	.	.	.	.
.	.	.	(16c#/	(16a\	.	.	.	.	.
.	.	.	16B/JJ)	16g#X\JJ)	.	.	.	.	.
=25	=25	=25	=25	=25	=25	=25	=25	=25	=25
!	!	!LO:DY:t=p.	!	!	!	!	!	!	!
4AA/	8 5 3	p	8c#/	8a/	2.ryy	0.r	.	2.ryy	2.ryy
.	.	.	4c#/	(4e/	.	.	.	.	.
4AA/	x 6 4	.	.	.	.	.	.	.	.
.	.	.	4d/	4f#/	.	.	.	.	.
4AA/	x 7nr 3	.	.	.	.	.	.	.	.
.	.	.	8e/	8gn/)	.	.	.	.	.
=26	=26	=26	=26	=26	=26	=26	=26	=26	=26
4AA/	x 6 4	.	4d/	(16e#X/LL	2.ryy	.	.	2.ryy	2.ryy
.	.	.	.	16f#/JJ)	.	.	.	.	.
.	.	.	.	(4f#/	.	.	.	.	.
4AA/	.	.	4d/	.	.	.	.	.	.
.	.	.	.	8dd\)	.	.	.	.	.
4AA/	7#r 4 2	.	(16e/LL	(16cc#\LL	.	.	.	.	.
.	.	.	16d/)	16b\)	.	.	.	.	.
.	.	.	(16c#/	(16a\	.	.	.	.	.
.	.	.	16B/JJ)	16g#\JJ)	.	.	.	.	.
=27	=27	=27	=27	=27	=27	=27	=27	=27	=27
*tremolo	*	*	*tremolo	*	*	*	*	*	*
!	!	!	!	!LO:LB:g=original	!	!	!	!	!
8AA/L	8 5 3	.	8c#/L 8e	16a/LL	2.ryy	.	.	2.ryy	2.ryy
.	.	.	.	16e/	.	.	.	.	.
8AA/	.	.	8c#/ 8e	16a/	.	.	.	.	.
.	.	.	.	16cc#/JJ	.	.	.	.	.
8AA/	.	.	8c#/ 8e	16a/LL	.	.	.	.	.
.	.	.	.	16e/	.	.	.	.	.
8AA/	.	.	8c#/ 8e	16a/	.	.	.	.	.
.	.	.	.	16ee/JJ	.	.	.	.	.
8AA/	.	.	8c#/ 8e	16a/LL	.	.	.	.	.
.	.	.	.	16e/	.	.	.	.	.
8AA/J	.	.	8c#/J 8e	16a/	.	.	.	.	.
.	.	.	.	16cc#/JJ	.	.	.	.	.
*Xtremolo	*	*	*Xtremolo	*	*	*	*	*	*
=28	=28	=28	=28	=28	=28	=28	=28	=28	=28
.	.	.	.	8qqb/	.	.	.	.	.
4AA/	.	.	2c#/ 2e	2a/	2.ryy	.	.	2.ryy	2.ryy
8r	.	.	.	.	.	.	.	.	.
8A|\L	.	.	.	.	.	.	.	.	.
8E|\	.	.	4r	4r	.	.	.	.	.
8C#|\J	.	.	.	.	.	.	.	.	.
=29	=29	=29	=29	=29	=29	=29	=29	=29	=29
!	!	!LO:DY:t=p.	!	!	!	!LO:TX:a:t=Solo:rj	!	!	!
4AA/	x 3 5	p	8e/L	8cc#\L	2.ryy	8.a\L	De	2.ryy	2.ryy
.	.	.	8e/J	8cc#\J	.	.	.	.	.
.	.	.	.	.	.	(32b\LL	.	.	.
.	.	.	.	.	.	32cc#\JJJ)	.	.	.
*	*	*	*tremolo	*tremolo	*	*	*	*	*
4AA/	x 4 6	.	8f#/L	8dd\L	.	4dd\	to-	.	.
.	.	.	8f#/	8dd\	.	.	.	.	.
4AA/	x 4 6	.	8f#/	8dd\	.	4dd\	-ren-	.	.
.	.	.	8f#/J	8dd\J	.	.	.	.	.
*	*	*	*Xtremolo	*Xtremolo	*	*	*	*	*
=30	=30	=30	=30	=30	=30	=30	=30	=30	=30
4AA/	x 4 6	.	8f#/L	(8dd\L	2.ryy	8dd\L	.	2.ryy	2.ryy
.	.	.	8e/J	8cc#\J)	.	8cc#\J	.	.	.
*	*	*	*tremolo	*tremolo	*	*	*	*	*
(8A\L	x 3 5	.	8e/L	8cc#\L	.	2cc#\	-te	.	.
8G#\)	.	.	8e/	8cc#\	.	.	.	.	.
(8A\	.	.	8e/	8cc#\	.	.	.	.	.
8G#\J)	.	.	8e/J	8cc#\J	.	.	.	.	.
*	*	*	*Xtremolo	*Xtremolo	*	*	*	*	*
=31	=31	=31	=31	=31	=31	=31	=31	=31	=31
!	!	!	!LO:LB:g=original	!	!	!LO:TX:t=P:LO:N:vis=8:problem	!	!	!
4AA/	.	.	8b\L	8ee\L	2.ryy	(8.cc#\L	in	2.ryy	2.ryy
.	.	.	8cc#\J	8ee\J	.	.	.	.	.
.	.	.	.	.	.	32dd\LL	.	.	.
.	.	.	.	.	.	32ee\JJJ)	.	.	.
*	*	*	*tremolo	*tremolo	*	*	*	*	*
4AA|/	x 6 4	.	8dd\L	8ff#\L	.	4ff#\	vi-	.	.
.	.	.	8dd\	8ff#\	.	.	.	.	.
4AA|/	x 6 4	.	8dd\	8ff#\	.	4ff#\	-a	.	.
.	.	.	8dd\J	8ff#\J	.	.	.	.	.
*	*	*	*Xtremolo	*Xtremolo	*	*	*	*	*
=32	=32	=32	=32	=32	=32	=32	=32	=32	=32
4AA/	x 6 4	.	8dd\L	(8ff#\L	2.ryy	8ff#\L	bi-	2.ryy	2.ryy
.	.	.	8cc#\J	8ee\J)	.	8ee\J	.	.	.
!LO:TX:t=P:problem=mixed beam	!	!	!	!	!	!	!	!	!
*	*	*	*	*tremolo	*	*	*	*	*
(8A\L	x 5 3	.	2cc#\	8ee\L	.	2ee\	-bet	.	.
8G#\)	.	.	.	8ee\	.	.	.	.	.
8A\	.	.	.	8ee\	.	.	.	.	.
8AA/J	.	.	.	8ee\J	.	.	.	.	.
*	*	*	*	*Xtremolo	*	*	*	*	*
=33	=33	=33	=33	=33	=33	=33	=33	=33	=33
4E\	x x 7	.	4g#|/	4r	2.ryy	(16dd\LL	de	2.ryy	2.ryy
.	.	.	.	.	.	16cc#\)	.	.	.
.	.	.	.	.	.	(16ff#\	.	.	.
.	.	.	.	.	.	16ee\JJ)	.	.	.
4G#\	.	.	4b|/	8r	.	2dd\	tor-	.	.
.	.	.	.	8cc#\L 8ee	.	.	.	.	.
4E\	.	.	4g#|/	8cc#\ 8ee	.	.	.	.	.
.	.	.	.	8cc#\J 8ee	.	.	.	.	.
=34	=34	=34	=34	=34	=34	=34	=34	=34	=34
4A\	.	.	4e|/	4r	2.ryy	(16cc#\LL	-ren-	2.ryy	2.ryy
.	.	.	.	.	.	16b\)	.	.	.
.	.	.	.	.	.	(16ee\	.	.	.
.	.	.	.	.	.	16dd\JJ)	.	.	.
.	.	.	.	.	.	8qqdd/	.	.	.
4C#|/	x x 6	.	4g#|/	8r	.	2cc#\	-te	.	.
.	.	.	.	8cc#\L 8ee	.	.	.	.	.
4AA|/	.	.	4e|/	8cc#\ 8ee	.	.	.	.	.
.	.	.	.	8cc#\J 8ee	.	.	.	.	.
=35	=35	=35	=35	=35	=35	=35	=35	=35	=35
*	*	*	*^	*	*	*	*	*	*
!	!	!	!	!	!LO:LB:g=original	!	!LO:LB:g=original	!	!	!
4D\	.	.	4a/	4f#\	(8.dd\L	2.ryy	8ff#\L	in	2.ryy	2.ryy
.	.	.	.	.	.	.	(16ee\L	.	.	.
.	.	.	.	.	16ee\Jk)	.	16gg#\JJ)	.	.	.
4r	.	.	4r	2ryy	16ff#\LL	.	(16aa\LL	vi-	.	.
.	.	.	.	.	(16ee\	.	16gg#\)	.	.	.
.	.	.	.	.	16dd\	.	(16ff#\	.	.	.
.	.	.	.	.	16cc#\JJ)	.	16ee\JJ)	.	.	.
4D\	x x 6	.	4f#/	.	(16b/LL	.	(16dd\LL	-a	.	.
.	.	.	.	.	16a/	.	16cc#\)	.	.	.
.	.	.	.	.	16g#/	.	(16b\	.	.	.
.	.	.	.	.	16f#/JJ)	.	16a\JJ)	.	.	.
*	*	*	*v	*v	*	*	*	*	*	*
=36	=36	=36	=36	=36	=36	=36	=36	=36	=36
!LO:LB:g=original	!	!	!	!	!	!LO:TUP:a:problem=klamra łukowa	!	!	!
4E\	x 6 4	.	4.e/	4a/	2.ryy	12a\L	bi-	2.ryy	2.ryy
.	.	.	.	.	.	12cc#\	.	.	.
.	.	.	.	.	.	12b\J	.	.	.
4G#\	x x 6	.	.	8g#|/L	.	4b\	-bet	.	.
.	.	.	8g#|/L	8b|/	.	.	.	.	.
4E\	.	.	8b|/	8ee|/	.	8r	.	.	.
.	.	.	8ee|/J	8gg#|/J	.	8ee\	in	.	.
=37	=37	=37	=37	=37	=37	=37	=37	=37	=37
2.BB/	x 6 4	.	4ee\	4gg#\	2.ryy	4ee\	vi-	2.ryy	2.ryy
.	x 5 3	.	8dd#X|\L	8ff#|\L	.	4dd#X\	-a	.	.
.	x 7 #	.	8b|\	8b|\	.	.	.	.	.
!	!	!	!	!LO:SIC:v:s=8dd#|\	!	!	!	!	!
.	.	.	8dd#|\	8dd|\	.	8r	.	.	.
.	.	.	8ff#|\J	8aa|\J	.	8ff#\	in	.	.
=38	=38	=38	=38	=38	=38	=38	=38	=38	=38
2.EE/	x 4 9	.	4ff#\	4aa\	2.ryy	4ff#\	vi-	2.ryy	2.ryy
.	x 3 8	.	8ee|\L	8gg#\L	.	4ee\	-a	.	.
.	.	.	8b|\	8ee\	.	.	.	.	.
.	.	.	8ee|\	8gg#\	.	8r	.	.	.
.	.	.	8gg#|\J	8bb\J	.	8b\	in	.	.
=39	=39	=39	=39	=39	=39	=39	=39	=39	=39
!	!	!	!LO:LB:g=original	!	!	!	!	!	!
4AA/	.	.	8r	(8cc#\L	2.ryy	8cc#\L	vi-	2.ryy	2.ryy
.	.	.	8cc#/L	8aa\	.	8aa\J	.	.	.
2BB/	x 6 4	.	8b/	8gg#\)	.	8gg#\L	-a	.	.
.	x 7 3#r	.	8a/	(8ff#\	.	8ff#\J	.	.	.
.	.	.	8g#/	8ee\	.	8ee\L	bi-	.	.
.	.	.	8f#/J	8dd#X\J)	.	8dd#X\J	.	.	.
=40	=40	=40	=40	=40	=40	=40	=40	=40	=40
!	!	!	!	!	!	!LO:SIC:v:s=8qqdd#/	!	!	!
.	.	.	.	.	.	8qqdd/	.	.	.
8r	.	.	8e/	8ee\	2.ryy	2ee\	-bet	2.ryy	2.ryy
8Cn/	.	.	4e/	4gn/	.	.	.	.	.
(8C/L	.	.	.	.	.	.	.	.	.
8BB/J)	.	.	4e/	4g/	.	.	.	.	.
(8BB/L	.	.	.	.	.	4r	.	.	.
8AA#X/J)	.	.	8e/	8g/	.	.	.	.	.
=41	=41	=41	=41	=41	=41	=41	=41	=41	=41
[2.BB/	x x 3#r	.	4d#X/	4f#/	2.ryy	4r	.	2.ryy	2.ryy
.	.	.	4r	4b/	.	4b\	De	.	.
.	.	.	4r	4cc#/	.	4cc#\	to-	.	.
=42	=42	=42	=42	=42	=42	=42	=42	=42	=42
!	!	!	!	!LO:LB:g=original	!	!	!	!	!
2.BB/]	x x 3#r	.	4B/	(4dd#X\	2.ryy	4dd#X\	-ren-	2.ryy	2.ryy
.	.	.	4c#/	4ee\)	.	4ee\	-te	.	.
.	.	.	4d#X/	4ff#|\	.	4ff#\	in	.	.
=43	=43	=43	=43	=43	=43	=43	=43	=43	=43
4E\	x x 3#r	.	2.e/	(4gg#X\	2.ryy	4gg#\	vi-	2.ryy	2.ryy
4F#\	x 7 3#r	.	.	4a#X/)	.	4a#X\	.	.	.
4G#\	x x 6	.	.	4b/	.	4b\	-a	.	.
=44	=44	=44	=44	=44	=44	=44	=44	=44	=44
!	!	!	!	!LO:SIC:v:s=(16dd#\LL:t=?	!	!LO:SIC:v:s=(16dd#\LL:t=?	!	!	!
4A\	x x 6	.	16b|/LL	(16dd\LL	2.ryy	(16dd\LL	bi-	2.ryy	2.ryy
.	.	.	(16a/	16cc#\)	.	16cc#\	.	.	.
.	.	.	16g#/	(16b\	.	16b\	.	.	.
.	.	.	16f#/JJ)	16a\JJ)	.	16a\JJ)	.	.	.
4B\	x 6 4	.	4e/	4g#/	.	4g#/	.	.	.
4B\	x 5 3#r	.	4d#X/	4f#/	.	4f#/	-bet	.	.
=45	=45	=45	=45	=45	=45	=45	=45	=45	=45
!	!	!	!LO:TX:a:t=1	!	!	!	!	!	!
[2.BB/	x x 3#r	.	2.r	4r	2.ryy	4r	.	2.ryy	2.ryy
.	.	.	.	4b\	.	4b\	De	.	.
.	.	.	.	4cc#\	.	4cc#\	to-	.	.
=46	=46	=46	=46	=46	=46	=46	=46	=46	=46
2.BB/]	x x 3#r	.	4B/	(4dd#X\	2.ryy	4dd#X\	-ren-	2.ryy	2.ryy
.	.	.	4c#/	4ee\)	.	4ee\	.	.	.
.	.	.	4d#X/	4ff#\	.	4ff#\	-te	.	.
=47	=47	=47	=47	=47	=47	=47	=47	=47	=47
4E\	.	.	2.e/	(4gg#\	2.ryy	4gg#\	in	2.ryy	2.ryy
4F#\	x 7 3#r	.	.	4a#X/)	.	4a#X\	vi-	.	.
4G#\	x x 6	.	.	4b/	.	4b\	-a	.	.
=48	=48	=48	=48	=48	=48	=48	=48	=48	=48
4A\	x x 6	.	(16dd\LL	(16bb\LL	2.ryy	(16dd\LL	vi-	2.ryy	2.ryy
.	.	.	16cc#\	16aa\)	.	16cc#\JJ)	.	.	.
.	.	.	16b\	(16gg#\	.	(16b\LL	-a	.	.
.	.	.	16a\JJ)	16ff#\JJ)	.	16a\JJ)	.	.	.
4B\	x 6 4	.	4g#/	4ee\	.	4g#/	bi-	.	.
4BB/	x 7 3#r	.	4f#/	4dd#X\	.	4f#/	.	.	.
=49	=49	=49	=49	=49	=49	=49	=49	=49	=49
!LO:LB:g=original	!	!	!LO:LB:g=original	!	!	!	!	!	!
4EE|/	x 3 5	.	(8.g#/L	8.ee\L	2.ryy	2e/	-bet	2.ryy	2.ryy
.	.	.	32a/LL	(32ff#\LL	.	.	.	.	.
.	.	.	32b/JJJ)	32gg#\JJJ)	.	.	.	.	.
4EE|/	x 4 6	.	4cc#\	4aa\	.	.	.	.	.
4EE|/	x 4 6	.	4cc#\	4aa\	.	4r	.	.	.
=50	=50	=50	=50	=50	=50	=50	=50	=50	=50
!	!	!	!	!LO:LB:g=original	!	!	!	!	!
4EE/	x 4 6	.	8cc#\L	8aa\L	2.ryy	0.r	.	2.ryy	2.ryy
.	.	.	8b\J	8gg#\J	.	.	.	.	.
(8E\L	x 3 5	.	2b\	2gg#\	.	.	.	.	.
8D#X\)	.	.	.	.	.	.	.	.	.
(8E\	.	.	.	.	.	.	.	.	.
8D#\J)	.	.	.	.	.	.	.	.	.
=51	=51	=51	=51	=51	=51	=51	=51	=51	=51
!	!	!	!	!LO:N:vis=8	!	!	!	!	!
4EE/	.	.	(8.ee\L	8.gg#\L	2.ryy	.	.	2.ryy	2.ryy
.	.	.	32ff#\LL	(32aa\LL	.	.	.	.	.
.	.	.	32gg#\JJJ)	32bb\JJJ)	.	.	.	.	.
4EE/	x 6 4	.	4aa\	4ccc#\	.	.	.	.	.
4EE/	x 6 4	.	4aa\	4ccc#\	.	.	.	.	.
=52	=52	=52	=52	=52	=52	=52	=52	=52	=52
4EE/	x 6 4	.	8aa\L	(8ccc#\L	2.ryy	.	.	2.ryy	2.ryy
.	.	.	8gg#\J	8bb\J)	.	.	.	.	.
!LO:TX:t=P:problem=mixed beam	!	!	!	!	!	!	!	!	!
(8E\L	x 5 3	.	2gg#\	2bb\	.	.	.	.	.
!LO:SIC:v:s=8D#\	!	!	!	!	!	!	!	!	!
8D\	.	.	.	.	.	.	.	.	.
8E\)	.	.	.	.	.	.	.	.	.
8EE/J	.	.	.	.	.	.	.	.	.
=53	=53	=53	=53	=53	=53	=53	=53	=53	=53
4AA/	.	.	(16a/LL	(16cc#\LL	2.ryy	.	.	2.ryy	2.ryy
.	.	.	16g#/JJ)	16b#X\JJ)	.	.	.	.	.
.	.	.	8qqg#/	8qqb#/	.	.	.	.	.
.	.	.	4a/	4cc#\	.	.	.	.	.
4r	.	.	.	.	.	.	.	.	.
.	.	.	4a/	(16dd#X\LL	.	.	.	.	.
.	.	.	.	16ee\JJ)	.	.	.	.	.
!	!	!	!	!LO:TX:t=P:problem=mixed beam	!	!	!	!	!
4AA/	x x 6	.	.	(16ff#\LL	.	.	.	.	.
.	.	.	.	16gg#\	.	.	.	.	.
.	.	.	8a/	16aa\	.	.	.	.	.
.	.	.	.	16a/JJ)	.	.	.	.	.
=54	=54	=54	=54	=54	=54	=54	=54	=54	=54
4E\	.	.	16g#/LL	(16b/LL	2.ryy	0.r	.	2.ryy	2.ryy
.	.	.	16f#/JJ	16a#X/JJ)	.	.	.	.	.
.	.	.	8qqf#/	8qqa#/	.	.	.	.	.
.	.	.	4g#/	4b/	.	.	.	.	.
4r	.	.	.	.	.	.	.	.	.
.	.	.	4g#/	(16cc#\LL	.	.	.	.	.
.	.	.	.	16dd#X\JJ)	.	.	.	.	.
!	!	!	!	!LO:TX:t=P:problem=mixed beam	!	!	!	!	!
4EE/	.	.	.	(16ee\LL	.	.	.	.	.
.	.	.	.	16ff#\)	.	.	.	.	.
.	.	.	8g#/	(16gg#\	.	.	.	.	.
.	.	.	.	16a#/JJ)	.	.	.	.	.
=55	=55	=55	=55	=55	=55	=55	=55	=55	=55
*tremolo	*	*	*	*	*	*	*	*	*
8A\L	.	.	8e/	(16b#X\LL	2.ryy	.	.	2.ryy	2.ryy
.	.	.	.	16cc#\JJ)	.	.	.	.	.
8A\	.	.	4a\	4cc#\	.	.	.	.	.
8A\	.	.	.	.	.	.	.	.	.
8A\J	.	.	8cc#\	8gg#\	.	.	.	.	.
*Xtremolo	*	*	*	*	*	*	*	*	*
!	!	!	!	!LO:LB:g=original	!	!	!	!	!
8B\L	x 6 4	.	(16b/LL	(16gg#\LL	.	.	.	.	.
.	.	.	16a/)	16ff#\)	.	.	.	.	.
8B\J	x 5 3#r	.	(16g#/	(16ee\	.	.	.	.	.
.	.	.	16f#/JJ)	16dd#X\JJ)	.	.	.	.	.
=56	=56	=56	=56	=56	=56	=56	=56	=56	=56
!	!	!LO:DY:t=p.	!LO:LB:g=original	!	!	!	!	!	!
8E\	.	p	16r	16r	2.ryy	.	.	2.ryy	2.ryy
.	.	.	(16g#/LL	(16ee\LL	.	.	.	.	.
8r	.	.	16b/	16gg#\	.	.	.	.	.
.	.	.	16g#/JJ)	16bb\JJ)	.	.	.	.	.
8EE/	.	.	16r	16r	.	.	.	.	.
.	.	.	(16g#/LL	(16b\LL	.	.	.	.	.
8r	.	.	16b/	16ee\	.	.	.	.	.
.	.	.	16ee/JJ)	16gg#\JJ)	.	.	.	.	.
8E\	.	.	16r	16r	.	.	.	.	.
.	.	.	(16e/LL	(16g#\LL	.	.	.	.	.
8r	.	.	16g#/	16b\	.	.	.	.	.
.	.	.	16b/JJ)	16ee\JJ)	.	.	.	.	.
=57	=57	=57	=57	=57	=57	=57	=57	=57	=57
*tremolo	*	*	*	*	*	*	*	*	*
8AA/L	x 6 5	.	8c#/	(16e\LL	2.ryy	.	.	2.ryy	2.ryy
.	.	.	.	16cc#\JJ)	.	.	.	.	.
8AA/	.	.	4a/	4cc#\	.	.	.	.	.
8AA/	.	.	.	.	.	.	.	.	.
8AA/J	.	.	(16cc#\LL	(16ee\LL	.	.	.	.	.
*Xtremolo	*	*	*	*	*	*	*	*	*
.	.	.	16a\JJ)	16cc#\JJ)	.	.	.	.	.
8BB/L	x 6 4	.	(16g#/LL	(16b/LL	.	.	.	.	.
.	.	.	16f#/	16a/	.	.	.	.	.
8BB/J	x 7 3#r	.	16e/	16g#/	.	.	.	.	.
.	.	.	16d#X/JJ)	16f#/JJ)	.	.	.	.	.
=58	=58	=58	=58	=58	=58	=58	=58	=58	=58
2.EE/	.	.	8e/L|	8e\L	2.ryy	2.r	.	2.ryy	2.ryy
.	.	.	(16g#/L	(16b\L	.	.	.	.	.
.	.	.	16a/JJ)	16cc#\JJ)	.	.	.	.	.
.	.	.	(16g#/LL	(16b\LL	.	.	.	.	.
.	.	.	16a/	16cc#\	.	.	.	.	.
.	.	.	16g#/	16b\	.	.	.	.	.
.	.	.	16f#/JJ)	16a\JJ)	.	.	.	.	.
.	.	.	8qqf#/	8qqa/	.	.	.	.	.
.	.	.	4e/	4g#/	.	.	.	.	.
=59	=59	=59	=59	=59	=59	=59	=59	=59	=59
*	*	*	*^	*	*	*	*	*	*
*	*	*	*tremolo	*tremolo	*	*	*	*	*	*
!LO:LB:g=original	!	!	!	!	!	!	!LO:LB:g=original	!	!	!
8E|\L	.	.	8b/L	8g#\L	(16ee\LL	2.ryy	2e/	prop-	2.ryy	2.ryy
.	.	.	.	.	16ff#\	.	.	.	.	.
8E|\	.	.	8b/	8g#\	16gg#\	.	.	.	.	.
.	.	.	.	.	16ee\JJ)	.	.	.	.	.
8E|\	.	.	8b/	8g#\	8ee|\L	.	.	.	.	.
8E|\	.	.	8b/	8g#\	8ee|\	.	.	.	.	.
8E|\	.	.	8b/	8g#\	8ee|\	.	4ee\	.	.	.
8E|\J	.	.	8b/J	8g#\J	8ee|\J	.	.	.	.	.
=60	=60	=60	=60	=60	=60	=60	=60	=60	=60	=60
*tremolo	*	*	*	*	*	*	*	*	*	*
8E\L	7#r 4 2	.	8a/L	8f#\L	(16ee\LL	2.ryy	8ee\	-te-	2.ryy	2.ryy
.	.	.	.	.	16ff#\	.	.	.	.	.
8E\	.	.	8a/	8f#\	16dd#X\	.	8dd#X\	-re-	.	.
.	.	.	.	.	16ff#\JJ)	.	.	.	.	.
8E\	.	.	8a/	8f#\	(16dd#\LL	.	2dd#\	-a	.	.
.	.	.	.	.	16ff#\	.	.	.	.	.
8E\	.	.	8a/	8f#\	16dd#\	.	.	.	.	.
.	.	.	.	.	16ff#\JJ)	.	.	.	.	.
8E\	.	.	8a/	8f#\	(16dd#\LL	.	.	.	.	.
.	.	.	.	.	16ff#\	.	.	.	.	.
8E\J	.	.	8a/J	8f#\J	16dd#\	.	.	.	.	.
.	.	.	.	.	16ff#\JJ)	.	.	.	.	.
=61	=61	=61	=61	=61	=61	=61	=61	=61	=61	=61
8E\L	7nr 5 3	.	8b/L	8g#\L	(16ddn\LL	2.ryy	2e/	e-	2.ryy	2.ryy
.	.	.	.	.	16ee\	.	.	.	.	.
8E\	.	.	8b/	8g#\	16dd\	.	.	.	.	.
.	.	.	.	.	16ee\JJ)	.	.	.	.	.
8E\	.	.	8b/	8g#\	(16dd\LL	.	.	.	.	.
.	.	.	.	.	16ee\	.	.	.	.	.
8E\	.	.	8b/	8g#\	16dd\	.	.	.	.	.
.	.	.	.	.	16ee\JJ)	.	.	.	.	.
8E\	.	.	8b/	8g#\	(16dd\LL	.	4ddn\	-xal-	.	.
.	.	.	.	.	16ee\	.	.	.	.	.
8E\J	.	.	8b/J	8g#\J	16dd\	.	.	.	.	.
.	.	.	.	.	16ee\JJ)	.	.	.	.	.
=62	=62	=62	=62	=62	=62	=62	=62	=62	=62	=62
8A\L	x x 4	.	8a/L	8f#\L	(16dd\LL	2.ryy	8dd\L	-ta-	2.ryy	2.ryy
.	x x 3	.	.	.	16ee\	.	.	.	.	.
8A\	.	.	8a/	8f#\	16cc#\	.	8cc#\J	.	.	.
.	.	.	.	.	16ee\JJ)	.	.	.	.	.
8A\	.	.	8a/	8f#\	(16cc#\LL	.	2cc#\	-bit	.	.
.	.	.	.	.	16ee\	.	.	.	.	.
8A\	.	.	8a/	8f#\	16cc#\	.	.	.	.	.
.	.	.	.	.	16ee\JJ)	.	.	.	.	.
8A\	.	.	8a/	8f#\	(16cc#\LL	.	.	.	.	.
.	.	.	.	.	16ee\	.	.	.	.	.
8A\J	.	.	8a/J	8f#\J	16cc#\	.	.	.	.	.
.	.	.	.	.	16ee\JJ)	.	.	.	.	.
*Xtremolo	*	*	*Xtremolo	*Xtremolo	*	*	*	*	*	*
*	*	*	*v	*v	*	*	*	*	*	*
=63	=63	=63	=63	=63	=63	=63	=63	=63	=63
!	!	!	!LO:TUP:b:problem=klamra łukowa	!LO:TUP:a:problem=klamra łukowa	!	!LO:TUP:a:problem=klamra łukowa	!	!	!
4AA|/	x 3 5	.	12c#/L	12a\L	2.ryy	12a\L	e-	2.ryy	2.ryy
.	.	.	12d/	12b\	.	12b\	.	.	.
.	.	.	12e/J	12cc#\J	.	12cc#\J	.	.	.
4AA|/	x 4 6	.	(8f#/L	8dd\L|	.	2dd\	.	.	.
.	.	.	8f#/	8dd\|	.	.	.	.	.
4AA|/	x 4 6	.	8g#/	8dd\|	.	.	.	.	.
.	.	.	8g#/J)	8dd\J|	.	.	.	.	.
=64	=64	=64	=64	=64	=64	=64	=64	=64	=64
!	!	!	!LO:LB:g=original	!	!	!	!	!	!
!	!	!	!LO:TUP:a:problem=klamra łukowa	!LO:TUP:a:problem=klamra łukowa	!	!LO:TUP:a:problem=klamra łukowa	!	!	!
4AA|/	x 3 5	.	12a\L	12cc#\L	2.ryy	12cc#\L	-xal-	2.ryy	2.ryy
.	.	.	12b\	12dd\	.	12dd\	.	.	.
.	.	.	12cc#\J	12ee\J	.	12ee\J	.	.	.
4AA|/	x 6 4	.	(8dd|\L	8ff#|\L	.	2ff#\	.	.	.
.	.	.	8dd|\	8ff#|\	.	.	.	.	.
4AA|/	x 6 4	.	8dd|\	8ff#|\	.	.	.	.	.
.	.	.	8dd|\J)	8ff#|\J	.	.	.	.	.
=65	=65	=65	=65	=65	=65	=65	=65	=65	=65
!	!	!	!	!LO:LB:g=original	!	!	!	!	!
4AA/	x 5 3	.	(8.cc#\L	(8.ee\L	2.ryy	8ee\L	-ta-	2.ryy	2.ryy
.	.	.	.	.	.	16ff#\L	.	.	.
.	.	.	16b\Jk)	16dd\Jk)	.	16gg#\JJ	.	.	.
4r	.	.	2a/	2cc#\	.	(16bb\LL	-bit	.	.
.	.	.	.	.	.	16aa\	.	.	.
.	.	.	.	.	.	16bb\	.	.	.
.	.	.	.	.	.	16gg#\JJ)	.	.	.
4F#\	x 6\ 5	.	.	.	.	(16aa\LL	.	.	.
.	.	.	.	.	.	16ff#\	.	.	.
.	.	.	.	.	.	16ee\	.	.	.
.	.	.	.	.	.	16dd#X\JJ)	.	.	.
=66	=66	=66	=66	=66	=66	=66	=66	=66	=66
!LO:TX:t=P:problem=mixed beam	!	!	!	!	!	!LO:SIC:v:s=8qqdd#/	!	!	!
.	.	.	.	.	.	8qqdd/	.	.	.
8E\L	x 6 4	.	(16a/LL	(16cc#\LL	2.ryy	4ee\	Ca-	2.ryy	2.ryy
.	.	.	16g#/)	16b\)	.	.	.	.	.
8EE/J	.	.	(16g#/	(16b\	.	.	.	.	.
.	.	.	16f#/JJ)	16a\JJ)	.	.	.	.	.
.	.	.	8qqf#/	8qqa/	.	.	.	.	.
8E\L	x 5 3	.	2g#/	2b\	.	4e/	-put	.	.
8D#X\J	.	.	.	.	.	.	.	.	.
8E\L	.	.	.	.	.	4r	.	.	.
8D#X\J	.	.	.	.	.	.	.	.	.
=67	=67	=67	=67	=67	=67	=67	=67	=67	=67
[2.EE/	x x 3	.	2.r	4r	2.ryy	4r	.	2.ryy	2.ryy
.	x x 2	.	.	4e/	.	4e/	prop-	.	.
.	.	.	.	4f#/	.	4f#/	-te-	.	.
=68	=68	=68	=68	=68	=68	=68	=68	=68	=68
!LO:N:vis=2.	!	!	!	!	!	!	!	!	!
2EE/]	x 5 3	.	4e/	4g#/	2.ryy	4g#/	-re-	2.ryy	2.ryy
.	x 4 2	.	4f#/	4a/	.	4a/	-a	.	.
!	!	!	!	!	!	!LO:SIC:l:v:s=e-	!	!	!
4Dn\	x 6 4	.	4g#/	4b/	.	4b/	ex-	.	.
=69	=69	=69	=69	=69	=69	=69	=69	=69	=69
!	!	!	!	!	!	!LO:LB:g=original	!	!	!
4C#/	x x 6	.	4a\|	(4cc#\	2.ryy	4cc#\	-xal-	2.ryy	2.ryy
4BB/	x x 6	.	4b\|	4dd\	.	4dd\	.	.	.
4AA/	x x 5	.	4cc#\|	4ee\)	.	4ee\	.	.	.
=70	=70	=70	=70	=70	=70	=70	=70	=70	=70
4D\	x x 6	.	16ee\LL	16gg#\LL	2.ryy	16gg#\LL	-ta-	2.ryy	2.ryy
.	.	.	(16dd\	(16ff#\	.	16ff#\JJ	.	.	.
.	.	.	16cc#\	16ee\	.	16ee\LL	-bit	.	.
.	.	.	16b\JJ)	16dd\JJ)	.	16dd\JJ	.	.	.
2E\	x 6 4	.	4a/	4cc#\	.	4dd\	Ca-	.	.
.	x 5 3	.	4g#/	4b\	.	4cc#\	-put	.	.
=71	=71	=71	=71	=71	=71	=71	=71	=71	=71
!LO:LB:g=original	!	!	!LO:TX:a:t=1	!	!	!	!	!	!
[2.EE/	x x 3	.	2.r	4r	2.ryy	4r	.	2.ryy	2.ryy
.	x x 2	.	.	4e/	.	4e/	prop-	.	.
.	.	.	.	4f#/	.	4f#/	-te-	.	.
=72	=72	=72	=72	=72	=72	=72	=72	=72	=72
2EE/]	x 5 3	.	(4e/	4g#/	2.ryy	4g#\	-re-	2.ryy	2.ryy
.	x 4 2	.	4f#/)	4a/	.	4a\	-a	.	.
8D\L	x 6 4	.	4g#|/	4b/	.	4b\	e-	.	.
8E\J	.	.	.	.	.	.	.	.	.
=73	=73	=73	=73	=73	=73	=73	=73	=73	=73
(8C#\L	x x 6	.	(4a\	4cc#\	2.ryy	4cc#\	-xal-	2.ryy	2.ryy
8E\J)	.	.	.	.	.	.	.	.	.
(8BB\L	x x 6	.	4b\)	4dd\	.	4dd\	-ta-	.	.
8E\J)	.	.	.	.	.	.	.	.	.
(8AA\L	x x 5	.	4cc#\|	4ee\	.	4ee\	.	.	.
8E\J)	.	.	.	.	.	.	.	.	.
=74	=74	=74	=74	=74	=74	=74	=74	=74	=74
!	!	!	!LO:LB:g=original	!LO:LB:g=original	!	!	!	!	!
4D\	x x 6	.	(16ee\LL	16gg#\LL	2.ryy	16gg#\LL	-ta-	2.ryy	2.ryy
.	.	.	16dd\	(16ff#\	.	16ff#\JJ	.	.	.
.	.	.	16cc#\	16ee\	.	16ee\LL	-bit	.	.
.	.	.	16b\JJ)	16dd\JJ)	.	16dd\JJ	.	.	.
4E\	x 6 4	.	4a/	4cc#\	.	8cc#\L	Ca-	.	.
.	.	.	.	.	.	16b\L	.	.	.
.	.	.	.	.	.	16a\JJ	.	.	.
4EE/	x 7 3	.	4g#/	4b\	.	4b\	-put	.	.
=75	=75	=75	=75	=75	=75	=75	=75	=75	=75
8AA/L	.	.	(8a/L	8r	2.ryy	4a\	.	2.ryy	2.ryy
8C#/	.	.	8e/J)	8a/L	.	.	.	.	.
8C#/	x x 6	.	8e/L	8a/	.	4.a\	pro-	.	.
8C#/	.	.	8e/	8a/	.	.	.	.	.
8C#/	.	.	8a/	8a/	.	.	.	.	.
8C#/J	.	.	8f#/J 8a	8a/J	.	8cc#\	.	.	.
=76	=76	=76	=76	=76	=76	=76	=76	=76	=76
*tremolo	*	*	*tremolo	*	*	*	*	*	*
8D\L	x 6 5	.	8a/L	(8cc#\L	2.ryy	8cc#\	-pte-	2.ryy	2.ryy
8D\	.	.	8a/	8b\)	.	8b\	-re-	.	.
8D\	.	.	8a/	(8b'\	.	2b\	-a	.	.
8D\	.	.	8a/	8b'\	.	.	.	.	.
8D\	.	.	8a/	8b'\	.	.	.	.	.
8D\J	.	.	8a/J	8dd'\J)	.	.	.	.	.
=77	=77	=77	=77	=77	=77	=77	=77	=77	=77
8E\L	x 6 4	.	8a/L	(8dd\L	2.ryy	8dd\L	ex-	2.ryy	2.ryy
!	!	!	!	!	!	!LO:SIC:l:s=.	!	!	!
8E\	.	.	8a/	8cc#\J)	.	8cc#\J	-al-	.	.
*	*	*	*	*tremolo	*	*	*	*	*
!	!	!	!	!	!	!LO:SIC:l:s=-al-	!	!	!
8E\	.	.	8a/	(8cc#|\L	.	4.cc#\	-ta-	.	.
8E\	.	.	8a/	8cc#|\	.	.	.	.	.
8E\	.	.	8a/	8cc#|\	.	.	.	.	.
!	!	!	!	!	!	!LO:SIC:l:s=.	!	!	!
8E\J	.	.	8a/J	8cc#|\J)	.	8ee\	-vit	.	.
*	*	*	*	*Xtremolo	*	*	*	*	*
=78	=78	=78	=78	=78	=78	=78	=78	=78	=78
!	!	!	!	!	!	!LO:LB:g=original	!	!	!
8F#\L	x 6 3	.	8a/L	(8ee\L	2.ryy	8ee\L	ta-	2.ryy	2.ryy
8F#\	.	.	8a/	8dd\J)	.	8dd\J	.	.	.
*	*	*	*	*tremolo	*	*	*	*	*
8F#\	.	.	8a/	(8dd|\L	.	2dd\	-vit	.	.
8F#\	.	.	8a/	8dd|\	.	.	.	.	.
8F#\	.	.	8a/	8dd|\	.	.	.	.	.
8F#\J	.	.	8a/J	8ff#|\J)	.	.	.	.	.
*Xtremolo	*	*	*Xtremolo	*Xtremolo	*	*	*	*	*
=79	=79	=79	=79	=79	=79	=79	=79	=79	=79
4C#/	x x 6	.	4A/ 4e 4a	4ee\	2.ryy	16ee\LL	e-	2.ryy	2.ryy
.	.	.	.	.	.	(16a\	.	.	.
.	.	.	.	.	.	16b\	.	.	.
.	.	.	.	.	.	16cc#\JJ)	.	.	.
4r	.	.	4r	4r	.	(16dd\LL	.	.	.
.	.	.	.	.	.	16ee\	.	.	.
.	.	.	.	.	.	16ff#\	.	.	.
.	.	.	.	.	.	16gg#\JJ)	.	.	.
4C#/	x x 6	.	4a/	(4ee\	.	(16aa\LL	.	.	.
.	.	.	.	.	.	16gg#\	.	.	.
.	.	.	.	.	.	16ff#\	.	.	.
.	.	.	.	.	.	16ee\JJ)	.	.	.
=80	=80	=80	=80	=80	=80	=80	=80	=80	=80
4D/	.	.	4a/	4ff#\)	2.ryy	16ff#\LL	.	2.ryy	2.ryy
.	.	.	.	.	.	16a\	.	.	.
.	.	.	.	.	.	16b\	.	.	.
.	.	.	.	.	.	16cc#\JJ	.	.	.
4r	.	.	4r	4r	.	16dd\LL	.	.	.
.	.	.	.	.	.	16ee\	.	.	.
.	.	.	.	.	.	16ff#\	.	.	.
.	.	.	.	.	.	16gg#\JJ	.	.	.
4D/	.	.	4a/	(4ff#\	.	16aa\LL	.	.	.
.	.	.	.	.	.	16ff#\	.	.	.
.	.	.	.	.	.	16ee\	.	.	.
.	.	.	.	.	.	16dd#X\JJ	.	.	.
=81	=81	=81	=81	=81	=81	=81	=81	=81	=81
4C#/	x x 6	.	4a/	4ee\)	2.ryy	16ee\LL	.	2.ryy	2.ryy
.	.	.	.	.	.	(16a\	.	.	.
.	.	.	.	.	.	16b\	.	.	.
.	.	.	.	.	.	16cc#\JJ)	.	.	.
4r	.	.	4r	4r	.	(16dd\LL	.	.	.
.	.	.	.	.	.	16ee\	.	.	.
.	.	.	.	.	.	16ff#\	.	.	.
.	.	.	.	.	.	16gg#\JJ)	.	.	.
4C#/	x x 6	.	4a/	4ee\	.	(16aa\LL	-xal-	.	.
.	.	.	.	.	.	16gg#\	.	.	.
.	.	.	.	.	.	16ff#\	.	.	.
.	.	.	.	.	.	16ee\JJ)	.	.	.
=82	=82	=82	=82	=82	=82	=82	=82	=82	=82
!LO:LB:g=original	!	!	!	!LO:LB:g=original	!	!	!	!	!
8D\L	x 9 7	.	(16f#/LL	(8ee|\L	2.ryy	2ee\	-ta-	2.ryy	2.ryy
.	.	.	16a/)	.	.	.	.	.	.
8D\	.	.	(16f#/	8dd|\	.	.	.	.	.
.	.	.	16a/JJ)	.	.	.	.	.	.
*	*	*	*rep	*	*	*	*	*	*
8D\	.	.	(16f#/LL	8ee|\	.	.	.	.	.
.	.	.	16a/)	.	.	.	.	.	.
8D\	.	.	(16f#/	8dd|\	.	.	.	.	.
.	.	.	16a/JJ)	.	.	.	.	.	.
*	*	*	*Xrep	*	*	*	*	*	*
*	*	*	*rep	*	*	*	*	*	*
8D\	.	.	(16f#/LL	8ee|\	.	4ff#\	.	.	.
.	.	.	16a/)	.	.	.	.	.	.
8D\J	.	.	(16f#/	8dd|\J)	.	.	.	.	.
.	.	.	16a/JJ)	.	.	.	.	.	.
*	*	*	*Xrep	*	*	*	*	*	*
=83	=83	=83	=83	=83	=83	=83	=83	=83	=83
*tremolo	*	*	*	*tremolo	*	*	*	*	*
8E\L	x 7 5	.	(16g#/LL	(8dd|\L	2.ryy	2.dd\	-vit	2.ryy	2.ryy
.	.	.	16b/)	.	.	.	.	.	.
8E\	.	.	(16g#/	8dd|\	.	.	.	.	.
.	.	.	16b/JJ)	.	.	.	.	.	.
*	*	*	*rep	*	*	*	*	*	*
8E\	.	.	(16g#/LL	8dd|\	.	.	.	.	.
.	.	.	16b/)	.	.	.	.	.	.
8E\	.	.	(16g#/	8dd|\	.	.	.	.	.
.	.	.	16b/JJ)	.	.	.	.	.	.
*	*	*	*Xrep	*	*	*	*	*	*
*	*	*	*rep	*	*	*	*	*	*
8E\	.	.	(16g#/LL	8dd|\	.	.	.	.	.
.	.	.	16b/)	.	.	.	.	.	.
8E\J	.	.	(16g#/	8dd|\J)	.	.	.	.	.
.	.	.	16b/JJ)	.	.	.	.	.	.
!	!	!	!	!	!	!LO:TX:b:t=Verte	!	!	!
*	*	*	*Xrep	*	*	*	*	*	*
=84	=84	=84	=84	=84	=84	=84	=84	=84	=84
!	!	!	!LO:LB:g=original	!	!	!LO:PB:g=original	!	!	!
8F#\L	x 5 3	.	(16a\LL	(8cc#|\L	2.ryy	2cc#\	vit	2.ryy	2.ryy
.	.	.	16cc#\)	.	.	.	.	.	.
8F#\	.	.	(16a\	8cc#|\	.	.	.	.	.
.	.	.	16cc#\JJ)	.	.	.	.	.	.
*	*	*	*rep	*	*	*	*	*	*
8F#\	.	.	(16a\LL	8cc#|\	.	.	.	.	.
.	.	.	16cc#\)	.	.	.	.	.	.
8F#\	.	.	(16a\	8cc#|\	.	.	.	.	.
.	.	.	16cc#\JJ)	.	.	.	.	.	.
*	*	*	*Xrep	*	*	*	*	*	*
*	*	*	*rep	*	*	*	*	*	*
8F#\	.	.	(16a\LL	8cc#|\	.	4r	.	.	.
.	.	.	16cc#\)	.	.	.	.	.	.
8F#\J	.	.	(16a\	8cc#|\J)	.	.	.	.	.
.	.	.	16cc#\JJ)	.	.	.	.	.	.
*Xtremolo	*	*	*Xrep	*Xtremolo	*	*	*	*	*
=85	=85	=85	=85	=85	=85	=85	=85	=85	=85
!LO:TX:t=P:problem=mixed beam	!	!	!	!	!	!	!	!	!
8D\L	x x 6	.	4f#/	16r	2.ryy	(32b\LLL	ca-	2.ryy	2.ryy
.	.	.	.	.	.	32cc#\JJ	.	.	.
!	!	!	!	!	!	!LO:N:vis=8	!	!	!
.	.	.	.	(16b\LL	.	8.dd\J)	.	.	.
8D\	.	.	.	16cc#\	.	.	.	.	.
.	.	.	.	16dd\JJ)	.	.	.	.	.
8E\	x 6 4	.	16e/LL	16r	.	4cc#\	.	.	.
.	.	.	16a/	(16cc#\LL	.	.	.	.	.
8E\	.	.	16b/	16dd\	.	.	.	.	.
.	.	.	16cc#/JJ	16ee\JJ)	.	.	.	.	.
8EE/	x 7 3	.	16r	16r	.	4g#/	.	.	.
.	.	.	16B/LL	(16g#/LL	.	.	.	.	.
8EE/J	.	.	16c#/	16a/	.	.	.	.	.
.	.	.	16d/JJ	16b/JJ)	.	.	.	.	.
=86	=86	=86	=86	=86	=86	=86	=86	=86	=86
!LO:TX:t=P:problem=mixed beam	!	!LO:DY:t=for	!	!	!	!	!	!	!
8AA/L	.	f	8c#/L	8a/L|	2.ryy	4a\	-put	2.ryy	2.ryy
(16A\L	.	.	(16a/L	(16a/L	.	.	.	.	.
16G#\JJ)	.	.	16g#/JJ)	16g#/JJ)	.	.	.	.	.
!LO:TX:b:t=uni ſono	!	!	!	!	!	!	!	!	!
(16A\LL	.	.	(16a/LL	(16a/LL	.	4a\	e-	.	.
16G#\)	.	.	16g#/)	16g#/)	.	.	.	.	.
(16A\	.	.	(16a/	(16a/	.	.	.	.	.
16G#\JJ)	.	.	16g#/JJ)	16g#/JJ)	.	.	.	.	.
8A|\L	.	.	(8a/L	8a/L	.	4a\	-xal-	.	.
8C#|\J	.	.	8c#/J)	8c#/J	.	.	.	.	.
=87	=87	=87	=87	=87	=87	=87	=87	=87	=87
8D\L	.	.	8d/L|	8d/L|	2.ryy	2a;\	-ta-	2.ryy	2.ryy
(16A\L	.	.	(16a/L	(16a/L	.	.	.	.	.
16G#\JJ)	.	.	16g#/JJ)	16g#/JJ)	.	.	.	.	.
(16A\LL	.	.	(16a/LL	(16a/LL	.	.	.	.	.
16G#\)	.	.	16g#/)	16g#/)	.	.	.	.	.
(>16A\	.	.	(16a/	(16a/	.	.	.	.	.
16G#\JJ)	.	.	16g#/JJ)	16g#/JJ)	.	.	.	.	.
.	.	.	.	.	.	16qqa/LL	.	.	.
.	.	.	.	.	.	16qqb/	.	.	.
.	.	.	.	.	.	16qqcc#/	.	.	.
.	.	.	.	.	.	16qqdd/	.	.	.
.	.	.	.	.	.	16qqee/	.	.	.
.	.	.	.	.	.	16qqff#/	.	.	.
.	.	.	.	.	.	16qqgg#/	.	.	.
.	.	.	.	.	.	16qqaa/JJ	.	.	.
8A|\L	.	.	8a/L	8a/L	.	4aa/	.	.	.
8Dn|\J	.	.	8d#X/J	8d#X/J	.	.	.	.	.
=88	=88	=88	=88	=88	=88	=88	=88	=88	=88
!	!	!LO:DY:t=p.:rj	!	!	!	!	!	!	!
2.EE;</	x 6 4	p	4e;/	4e;/	2.ryy	8a\	.	2.ryy	2.ryy
.	x 5 4	.	.	.	.	8b\	vit	.	.
.	x 7 3	.	4r	4r	.	4.b\	Ca-	.	.
.	.	.	4r	4r	.	.	.	.	.
.	.	.	.	.	.	(16a\LL	.	.	.
.	.	.	.	.	.	16b\JJ)	.	.	.
=89	=89	=89	=89	=89	=89	=89	=89	=89	=89
!	!	!	!	!LO:LB:g=original	!	!	!	!	!
.	.	.	.	.	.	16qqa/LL	.	.	.
.	.	.	.	.	.	16qqcc#/	.	.	.
.	.	.	.	.	.	16qqb/JJ	.	.	.
4AA/	x 3 5	.	8.c#/L	8.a\L	2.ryy	2a\	-put	2.ryy	2.ryy
.	.	.	32d/LL	(32b\LL	.	.	.	.	.
.	.	.	32e/JJJ	32cc#\JJJ)	.	.	.	.	.
4AA/	x 4 6	.	4f#/	4dd\	.	.	.	.	.
4AA/	x 4 6	.	4f#/	4dd\	.	4r	.	.	.
=90	=90	=90	=90	=90	=90	=90	=90	=90	=90
!	!	!	!LO:LB:g=original	!	!	!LO:TX:a:t=16	!	!	!
.	.	.	.	16qqee/	.	.	.	.	.
4AA/	x 4 6	.	(8f#/L	(8dd\L	2.ryy	0.r	.	2.ryy	2.ryy
.	.	.	8e/J)	8cc#\J)	.	.	.	.	.
*	*	*	*	*tremolo	*	*	*	*	*
(8A\L	x 3 5	.	2e/	8cc#\L	.	.	.	.	.
8G#\)	.	.	.	8cc#\	.	.	.	.	.
(8A\	.	.	.	8cc#\	.	.	.	.	.
8G#\J)	.	.	.	8cc#\J	.	.	.	.	.
*	*	*	*	*Xtremolo	*	*	*	*	*
=91	=91	=91	=91	=91	=91	=91	=91	=91	=91
!LO:LB:g=original	!	!	!	!LO:LB:g=original	!	!	!	!	!
4AA/	.	.	8.a\L	8.cc#\L	2.ryy	.	.	2.ryy	2.ryy
.	.	.	(32b\LL	(32dd\LL	.	.	.	.	.
.	.	.	32cc#\JJJ)	32ee\JJJ)	.	.	.	.	.
4AA/	x 6 4	.	4dd\	4ff#\	.	.	.	.	.
4AA/	x 6 4	.	4dd\	4ff#\	.	.	.	.	.
=92	=92	=92	=92	=92	=92	=92	=92	=92	=92
.	.	.	.	16qqgg#/	.	.	.	.	.
4AA/	x 6 4	.	(8dd\L	8ff#\L	2.ryy	.	.	2.ryy	2.ryy
.	.	.	8cc#\J)	8ee\J	.	.	.	.	.
(8A\L	x 5 3	.	2cc#\	2ee\	.	.	.	.	.
8G#\)	.	.	.	.	.	.	.	.	.
(8A\	.	.	.	.	.	.	.	.	.
8G#\J)	.	.	.	.	.	.	.	.	.
=93	=93	=93	=93	=93	=93	=93	=93	=93	=93
4A|\	.	.	4c#/	8a\L	2.ryy	.	.	2.ryy	2.ryy
.	.	.	.	8qqgg#/	.	.	.	.	.
.	.	.	.	8aa\J	.	.	.	.	.
4c#|\	x x 6	.	4ee\	(8aa\L	.	.	.	.	.
.	.	.	.	8gg#\J)	.	.	.	.	.
4B\	x 6 3#r	.	4dd#X\	(8gg#\L	.	.	.	.	.
.	.	.	.	8ff#\J)	.	.	.	.	.
=94	=94	=94	=94	=94	=94	=94	=94	=94	=94
4A\	x x 6	.	4cc#\	(8ff#\L	2.ryy	0.r	.	2.ryy	2.ryy
.	.	.	.	8ee\J)	.	.	.	.	.
4G#\	x x 6	.	4b\	(8ee\L	.	.	.	.	.
.	.	.	.	8dd#X\J)	.	.	.	.	.
4F#\	x x 6\	.	4a\	(8dd#\L	.	.	.	.	.
.	.	.	.	8ee\J)	.	.	.	.	.
=95	=95	=95	=95	=95	=95	=95	=95	=95	=95
!	!	!	!	!LO:TX:t=P:problem=mixed beam	!	!	!	!	!
4E\	.	.	4g#/	(8e/L	2.ryy	.	.	2.ryy	2.ryy
.	.	.	.	8ddn\J)	.	.	.	.	.
4F#\	x x 6nr	.	4a/	(8dd\L	.	.	.	.	.
.	.	.	.	8cc#\J)	.	.	.	.	.
4E\	x x 6	.	4g#/	(8cc#\L	.	.	.	.	.
.	.	.	.	8b\J)	.	.	.	.	.
=96	=96	=96	=96	=96	=96	=96	=96	=96	=96
!	!	!	!	!LO:LB:g=original	!	!	!	!	!
4D/	x x 6	.	4f#/	(8b/L	2.ryy	.	.	2.ryy	2.ryy
.	.	.	.	8a/J)	.	.	.	.	.
4C#/	x x 6	.	4e/	(8a/L	.	.	.	.	.
.	.	.	.	8g#/J)	.	.	.	.	.
4BB/	x x 6	.	4d/	(8g#/L	.	.	.	.	.
.	.	.	.	8a/J)	.	.	.	.	.
=97	=97	=97	=97	=97	=97	=97	=97	=97	=97
8AA/L	.	.	(16c#/LL	8A/	2.ryy	.	.	2.ryy	2.ryy
.	.	.	16e/)	.	.	.	.	.	.
8AA/	.	.	(16a/	4cc#\	.	.	.	.	.
.	.	.	16e/JJ)	.	.	.	.	.	.
*	*	*	*rep	*	*	*	*	*	*
8AA/	.	.	(16c#/LL	.	.	.	.	.	.
.	.	.	16e/)	.	.	.	.	.	.
8AA/	.	.	(16a/	4ee\	.	.	.	.	.
.	.	.	16e/JJ)	.	.	.	.	.	.
*	*	*	*Xrep	*	*	*	*	*	*
*	*	*	*rep	*	*	*	*	*	*
8C#/	x 6 5-	.	(16c#/LL	.	.	.	.	.	.
.	.	.	16e/)	.	.	.	.	.	.
8C#/J	.	.	(16a/	8ggn\	.	.	.	.	.
.	.	.	16e/JJ)	.	.	.	.	.	.
*	*	*	*Xrep	*	*	*	*	*	*
=98	=98	=98	=98	=98	=98	=98	=98	=98	=98
*	*	*	*^	*	*	*	*	*	*
*tremolo	*	*	*tremolo	*tremolo	*	*	*	*	*	*
!	!	!	!LO:LB:g=original	!	!	!	!	!	!	!
8D\L	.	.	8a/L	8f#\L	(16ee#X\LL	2.ryy	0.r	.	2.ryy	2.ryy
.	.	.	.	.	16ff#\J)	.	.	.	.	.
8D\	.	.	8a/	8f#\	8ff#\J	.	.	.	.	.
8D\	.	.	8a/	8f#\	(16ff#\LL	.	.	.	.	.
.	.	.	.	.	16gg#X\)	.	.	.	.	.
8D\	.	.	8a/	8f#\	(16aa\	.	.	.	.	.
.	.	.	.	.	16gg#\JJ)	.	.	.	.	.
8D\	.	.	8a/	8f#\	(16aa\LL	.	.	.	.	.
.	.	.	.	.	16ff#\)	.	.	.	.	.
8D\J	.	.	8a/J	8f#\J	(16ee#\	.	.	.	.	.
.	.	.	.	.	16dd\JJ)	.	.	.	.	.
*	*	*	*Xtremolo	*Xtremolo	*	*	*	*	*	*
*	*	*	*v	*v	*	*	*	*	*	*
=99	=99	=99	=99	=99	=99	=99	=99	=99	=99
8E\L	x 6 4	.	(16a\LL	(16cc#\LL	2.ryy	.	.	2.ryy	2.ryy
!	!	!	!LO:SIC:v:s=16b#\):t=?	!	!	!	!	!	!
.	.	.	16b\)	16dd#X\)	.	.	.	.	.
8E\	.	.	(16cc#\	(16ee\	.	.	.	.	.
!	!	!	!LO:SIC:v:s=16b#\JJ):t=?	!	!	!	!	!	!
.	.	.	16b\JJ)	16dd#\JJ)	.	.	.	.	.
!	!	!	!LO:TX:t=P:problem=mixed beam	!	!	!	!	!	!
8E\	x 4 3	.	16cc#\LL	(16ee\LL	.	.	.	.	.
.	.	.	(16e/	16cc#\)	.	.	.	.	.
!	!	!	!LO:SIC:v:s=16d#/)	!	!	!	!	!	!
8E\	.	.	16d/	(16b\	.	.	.	.	.
.	.	.	16c#/JJ)	16a\JJ)	.	.	.	.	.
8E\	.	.	16B/LL	(16dd#\LL	.	.	.	.	.
!	!	!	!LO:SIC:v:s=16d#/	!	!	!	!	!	!
.	.	.	16d/	16b\)	.	.	.	.	.
8E\J	.	.	16c#/	(16a\	.	.	.	.	.
.	.	.	16B/JJ	16g#\JJ)	.	.	.	.	.
*Xtremolo	*	*	*	*	*	*	*	*	*
=100	=100	=100	=100	=100	=100	=100	=100	=100	=100
4AA/	.	.	8c#/	8A/	2.ryy	.	.	2.ryy	2.ryy
.	.	.	4c#/	4e/	.	.	.	.	.
4AA/	x 6 4	.	.	.	.	.	.	.	.
.	.	.	4d/	4f#/	.	.	.	.	.
4AA/	x 7 5	.	.	.	.	.	.	.	.
.	.	.	8e/	8gn/	.	.	.	.	.
=101	=101	=101	=101	=101	=101	=101	=101	=101	=101
!	!	!	!	!LO:LB:g=original	!	!	!	!	!
4AA/	x 6 4	.	8d/	(16e#X/LL	2.ryy	.	.	2.ryy	2.ryy
.	.	.	.	16f#/JJ)	.	.	.	.	.
.	.	.	4d/	4f#/	.	.	.	.	.
4AA/	.	.	.	.	.	.	.	.	.
.	.	.	8f#/	8dd\	.	.	.	.	.
4AA/	x 4 2	.	16f#/LL	(16cc#\LL	.	.	.	.	.
.	.	.	16e/	16b\)	.	.	.	.	.
.	.	.	16d/	(16a\	.	.	.	.	.
.	.	.	16c#/JJ	16g#X\JJ)	.	.	.	.	.
=102	=102	=102	=102	=102	=102	=102	=102	=102	=102
!LO:LB:g=original	!	!LO:DY:t=p.	!	!	!	!	!	!	!
4AA/	8 5 3	p	8c#/	8a/	2.ryy	0.r	.	2.ryy	2.ryy
.	.	.	4c#/	4e/	.	.	.	.	.
4AA/	.	.	.	.	.	.	.	.	.
.	.	.	4d/	4f#/	.	.	.	.	.
4AA/	x 6 4	.	.	.	.	.	.	.	.
.	x 7nr 5	.	8e/	8gn/	.	.	.	.	.
=103	=103	=103	=103	=103	=103	=103	=103	=103	=103
4AA/	x 6 4	.	8d/	(16e#X/LL	2.ryy	.	.	2.ryy	2.ryy
.	.	.	.	16f#/JJ)	.	.	.	.	.
.	.	.	4d/	4f#/	.	.	.	.	.
4AA/	.	.	.	.	.	.	.	.	.
.	.	.	8f#/	8dd\	.	.	.	.	.
4AA/	7#r 4 2	.	16e/LL	(16cc#\LL	.	.	.	.	.
.	.	.	16d/	16b\)	.	.	.	.	.
.	.	.	16c#/	(16a\	.	.	.	.	.
.	.	.	16B/JJ	16g#X\JJ)	.	.	.	.	.
=104	=104	=104	=104	=104	=104	=104	=104	=104	=104
*	*	*	*tremolo	*	*	*	*	*	*
8AA|/L	8 5 3	.	8c#/L 8e	(16a/LL	2.ryy	.	.	2.ryy	2.ryy
.	.	.	.	16e/)	.	.	.	.	.
8AA|/	.	.	8c#/ 8e	(16a/	.	.	.	.	.
.	.	.	.	16cc#/JJ)	.	.	.	.	.
8AA|/	.	.	8c#/ 8e	(16a/LL	.	.	.	.	.
.	.	.	.	16e/)	.	.	.	.	.
8AA|/	.	.	8c#/ 8e	(16a/	.	.	.	.	.
.	.	.	.	16cc#/JJ)	.	.	.	.	.
8AA|/	.	.	8c#/ 8e	(16a/LL	.	.	.	.	.
.	.	.	.	16e/)	.	.	.	.	.
8AA|/J	.	.	8c#/J 8e	(16a/	.	.	.	.	.
.	.	.	.	16cc#/JJ)	.	.	.	.	.
=105	=105	=105	=105	=105	=105	=105	=105	=105	=105
!	!	!	!LO:LB:g=original	!	!	!	!	!	!
.	.	.	.	8qqb/	.	.	.	.	.
2AA/	.	.	8c#/L 8e	2a/	2.ryy	.	.	2.ryy	2.ryy
.	.	.	8c#/ 8e	.	.	.	.	.	.
.	.	.	8c#/ 8e	.	.	.	.	.	.
.	.	.	8c#/ 8e	.	.	.	.	.	.
4r	.	.	8c#/ 8e	4r	.	.	.	.	.
.	.	.	8c#/J 8e	.	.	.	.	.	.
*	*	*	*Xtremolo	*	*	*	*	*	*
!LO:TX:b:t=Volti Subitto	!	!	!	!	!	!	!	!	!
==	==	==	==	==	==	==	==	==	==
*-	*-	*-	*-	*-	*-	*-	*-	*-	*-
!!!system-decoration: [(s1,s2)][(s3,s4)][(s5,s6)]s7
!!!RDF**kern: | = vertical stroke
!!!RDF**kern: > = above
!!!RDF**kern: < = below
!!!ENC: Filip Voros
!!!END: 2021-11-14
!!!ENC: Krzysztof Stępień
!!!END: 2021-11-14
